epam-assets/icon-sources/18/content-sort_asc.svg

<svg xmlns="http://www.w3.org/2000/svg" width="18" height="18" fill="none" viewBox="0 0 18 18">
  <path fill="#6C6F80" fill-rule="evenodd" d="M2.25 13.5h4.5V12h-4.5v1.5Zm0-9V6h13.5V4.5H2.25Zm0 5.25h9v-1.5h-9v1.5Z" clip-rule="evenodd"/>
</svg>

<svg width="18" height="18" viewBox="0 0 18 18" fill="none" xmlns="http://www.w3.org/2000/svg">
<g id="18/content-sort_asc">
<path id="icon" fill-rule="evenodd" clip-rule="evenodd" d="M2.25 13.5H6.75V12H2.25V13.5ZM2.25 4.5V6H15.75V4.5H2.25ZM2.25 9.75H11.25V8.25H2.25V9.75Z" fill="#6C6F80"/>
</g>
</svg>
